images/logo-htmlacademy-visited.svg

<svg width="115" height="34" viewBox="0 0 115 34" fill="none" xmlns="http://www.w3.org/2000/svg">
<path d="M0 13.3232V15.9232H2.5V13.3232H0Z" fill="#756157" fill-opacity="0.3"/>
<path d="M11.6 4.92322C10 4.92322 8.8 5.62322 8 6.62322H7.9V0.423218H5.9V15.9232H7.9V10.6232C7.9 8.52322 9.2 7.02322 11.2 7.02322C13 7.02322 14.1 8.42322 14.1 10.2232V15.9232H16.1V9.82322C16.2 6.82322 14.3 4.92322 11.6 4.92322Z" fill="#756157" fill-opacity="0.3"/>
<path d="M26.6 5.22322H21.8V1.52322H19.8V5.32322H17.9V7.32322H19.8V13.3232C19.8 15.0232 20.8 16.0232 22.5 16.0232H26.6V14.0232H22.9C22.2 14.0232 21.8 13.6232 21.8 12.9232V7.22322H26.6V5.22322Z" fill="#756157" fill-opacity="0.3"/>
<path d="M41.1 5.02322C39.5 5.02322 38.2 5.82322 37.6 7.12322H37.5C36.9 5.92322 35.7 5.02322 34.1 5.02322C32.7 5.02322 31.6 5.82322 31 6.82322H30.9V5.22322H29V15.8232H31V10.4232C31 8.42322 32 6.92322 33.6 6.92322C35.1 6.92322 36 7.92322 36 9.52322V15.8232H38V10.2232C38 7.82322 39.4 6.92322 40.6 6.92322C42.1 6.92322 43 7.92322 43 9.52322V15.8232H45V9.32322C45.1 6.82322 43.6 5.02322 41.1 5.02322Z" fill="#756157" fill-opacity="0.3"/>
<path d="M47.8 13.1232C47.8 14.8232 48.8 15.8232 50.6 15.8232H52.6V13.8232H50.9C50.2 13.8232 49.8 13.4232 49.8 12.7232V0.423218H47.8V13.1232Z" fill="#756157" fill-opacity="0.3"/>
<path d="M28.9 20.1232C28 19.0232 26.7 18.3232 25 18.3232C21.9 18.3232 19.6 20.6232 19.6 23.9232C19.6 27.2232 21.9 29.5232 25 29.5232C26.8 29.5232 28 28.7232 28.8 27.6232H28.9V29.2232H30.9V18.6232H28.9V20.1232ZM25.3 27.5232C23.1 27.5232 21.7 25.9232 21.7 23.9232C21.7 21.9232 23.1 20.3232 25.3 20.3232C27.5 20.3232 28.9 21.9232 28.9 23.9232C28.9 25.8232 27.5 27.5232 25.3 27.5232Z" fill="#756157" fill-opacity="0.3"/>
<path d="M44.2 22.4232C43.7 20.0232 41.6 18.3232 38.8 18.3232C35.4 18.3232 33.2 20.8232 33.2 23.9232C33.2 27.0232 35.4 29.5232 38.8 29.5232C41.6 29.5232 43.7 27.7232 44.2 25.3232H42.1C41.7 26.6232 40.4 27.6232 38.8 27.6232C36.6 27.6232 35.2 26.0232 35.2 24.0232C35.2 22.0232 36.6 20.4232 38.8 20.4232C40.4 20.4232 41.6 21.4232 42.1 22.6232H44.2V22.4232Z" fill="#756157" fill-opacity="0.3"/>
<path d="M55.1 20.1232C54.2 19.0232 52.9 18.3232 51.2 18.3232C48.1 18.3232 45.8 20.6232 45.8 23.9232C45.8 27.2232 48.1 29.5232 51.2 29.5232C53 29.5232 54.2 28.7232 55 27.6232H55.1V29.2232H57.1V18.6232H55.1V20.1232ZM51.5 27.5232C49.3 27.5232 47.9 25.9232 47.9 23.9232C47.9 21.9232 49.3 20.3232 51.5 20.3232C53.7 20.3232 55.1 21.9232 55.1 23.9232C55.1 25.8232 53.6 27.5232 51.5 27.5232Z" fill="#756157" fill-opacity="0.3"/>
<path d="M68.7 20.2232C67.8 19.1232 66.5 18.3232 64.8 18.3232C61.7 18.3232 59.4 20.6232 59.4 23.9232C59.4 27.2232 61.6 29.5232 64.8 29.5232C66.5 29.5232 67.8 28.7232 68.6 27.7232H68.7V29.2232H70.7V13.8232H68.7V20.2232ZM65.1 27.5232C62.9 27.5232 61.5 25.9232 61.5 23.9232C61.5 21.9232 62.9 20.3232 65.1 20.3232C67.3 20.3232 68.7 21.9232 68.7 23.9232C68.6 25.9232 67.2 27.5232 65.1 27.5232Z" fill="#756157" fill-opacity="0.3"/>
<path d="M78.3 18.3232C75 18.3232 72.8 20.8232 72.8 23.9232C72.8 26.9232 74.9 29.5232 78.3 29.5232C80.8 29.5232 82.8 28.2232 83.5 25.9232H81.4C80.9 26.9232 79.8 27.5232 78.4 27.5232C76.5 27.5232 75.1 26.2232 75 24.6232H83.8C84 21.0232 81.8 18.3232 78.3 18.3232ZM78.3 20.2232C80 20.2232 81.3 21.2232 81.6 22.8232H75.1C75.4 21.3232 76.6 20.2232 78.3 20.2232Z" fill="#756157" fill-opacity="0.3"/>
<path d="M98.2 18.3232C96.6 18.3232 95.3 19.1232 94.6 20.3232H94.5C93.9 19.1232 92.7 18.3232 91.1 18.3232C89.7 18.3232 88.6 19.0232 88 20.1232V18.6232H86.1V29.2232H88.1V23.8232C88.1 21.8232 89.1 20.4232 90.7 20.3232C92.2 20.3232 93.1 21.3232 93.1 22.9232V29.2232H95.1V23.6232C95.1 21.2232 96.5 20.3232 97.7 20.3232C99.2 20.3232 100.1 21.3232 100.1 22.9232V29.2232H102.1V22.7232C102.2 20.1232 100.7 18.3232 98.2 18.3232Z" fill="#756157" fill-opacity="0.3"/>
<path d="M109.4 27.4232L105.8 18.5232H103.6L108.4 30.1232C108.1 31.0232 107.7 31.3232 106.7 31.3232H104.2V33.3232H106.7C108.5 33.3232 109.5 32.5232 110.2 30.7232L114.9 18.5232H112.8L109.4 27.4232Z" fill="#756157" fill-opacity="0.3"/>
</svg>

<svg xmlns="http://www.w3.org/2000/svg" width="115" height="34" fill="none"><path fill="#756157" fill-opacity=".3" d="M0 13.323v2.6h2.5v-2.6H0ZM11.6 4.923c-1.6 0-2.8.7-3.6 1.7h-.1v-6.2h-2v15.5h2v-5.3c0-2.1 1.3-3.6 3.3-3.6 1.8 0 2.9 1.4 2.9 3.2v5.7h2v-6.1c.1-3-1.8-4.9-4.5-4.9ZM26.6 5.223h-4.8v-3.7h-2v3.8h-1.9v2h1.9v6c0 1.7 1 2.7 2.7 2.7h4.1v-2h-3.7c-.7 0-1.1-.4-1.1-1.1v-5.7h4.8v-2ZM41.1 5.023c-1.6 0-2.9.8-3.5 2.1h-.1c-.6-1.2-1.8-2.1-3.4-2.1-1.4 0-2.5.8-3.1 1.8h-.1v-1.6H29v10.6h2v-5.4c0-2 1-3.5 2.6-3.5 1.5 0 2.4 1 2.4 2.6v6.3h2v-5.6c0-2.4 1.4-3.3 2.6-3.3 1.5 0 2.4 1 2.4 2.6v6.3h2v-6.5c.1-2.5-1.4-4.3-3.9-4.3ZM47.8 13.123c0 1.7 1 2.7 2.8 2.7h2v-2h-1.7c-.7 0-1.1-.4-1.1-1.1V.423h-2v12.7ZM28.9 20.123c-.9-1.1-2.2-1.8-3.9-1.8-3.1 0-5.4 2.3-5.4 5.6s2.3 5.6 5.4 5.6c1.8 0 3-.8 3.8-1.9h.1v1.6h2v-10.6h-2v1.5Zm-3.6 7.4c-2.2 0-3.6-1.6-3.6-3.6s1.4-3.6 3.6-3.6 3.6 1.6 3.6 3.6c0 1.9-1.4 3.6-3.6 3.6ZM44.2 22.423c-.5-2.4-2.6-4.1-5.4-4.1-3.4 0-5.6 2.5-5.6 5.6 0 3.1 2.2 5.6 5.6 5.6 2.8 0 4.9-1.8 5.4-4.2h-2.1c-.4 1.3-1.7 2.3-3.3 2.3-2.2 0-3.6-1.6-3.6-3.6s1.4-3.6 3.6-3.6c1.6 0 2.8 1 3.3 2.2h2.1v-.2ZM55.1 20.123c-.9-1.1-2.2-1.8-3.9-1.8-3.1 0-5.4 2.3-5.4 5.6s2.3 5.6 5.4 5.6c1.8 0 3-.8 3.8-1.9h.1v1.6h2v-10.6h-2v1.5Zm-3.6 7.4c-2.2 0-3.6-1.6-3.6-3.6s1.4-3.6 3.6-3.6 3.6 1.6 3.6 3.6c0 1.9-1.5 3.6-3.6 3.6ZM68.7 20.223c-.9-1.1-2.2-1.9-3.9-1.9-3.1 0-5.4 2.3-5.4 5.6s2.2 5.6 5.4 5.6c1.7 0 3-.8 3.8-1.8h.1v1.5h2v-15.4h-2v6.4Zm-3.6 7.3c-2.2 0-3.6-1.6-3.6-3.6s1.4-3.6 3.6-3.6 3.6 1.6 3.6 3.6c-.1 2-1.5 3.6-3.6 3.6ZM78.3 18.323c-3.3 0-5.5 2.5-5.5 5.6 0 3 2.1 5.6 5.5 5.6 2.5 0 4.5-1.3 5.2-3.6h-2.1c-.5 1-1.6 1.6-3 1.6-1.9 0-3.3-1.3-3.4-2.9h8.8c.2-3.6-2-6.3-5.5-6.3Zm0 1.9c1.7 0 3 1 3.3 2.6h-6.5c.3-1.5 1.5-2.6 3.2-2.6ZM98.2 18.323c-1.6 0-2.9.8-3.6 2h-.1c-.6-1.2-1.8-2-3.4-2-1.4 0-2.5.7-3.1 1.8v-1.5h-1.9v10.6h2v-5.4c0-2 1-3.4 2.6-3.5 1.5 0 2.4 1 2.4 2.6v6.3h2v-5.6c0-2.4 1.4-3.3 2.6-3.3 1.5 0 2.4 1 2.4 2.6v6.3h2v-6.5c.1-2.6-1.4-4.4-3.9-4.4ZM109.4 27.423l-3.6-8.9h-2.2l4.8 11.6c-.3.9-.7 1.2-1.7 1.2h-2.5v2h2.5c1.8 0 2.8-.8 3.5-2.6l4.7-12.2h-2.1l-3.4 8.9Z"/></svg>
